X: 114
T: Belles of Tipperary
C:
R: reel
Z: 2012 John Chambers <jc:trillian.mit.edu>
M: C|
L: 1/8
K: D
|:\
D3E FA A2 | de fe dB Bd | Bd Ad Bb b2 | af de fe e2 |
DC DE FA A2 | de fe dB Bd | Bd Ad Bb b2 | af de fd d2 :|
|:\
a3 b af ed | gf ed fd d2 | Bd Ad Bb b2 | af de fe e2 |
a3 b af ed | gf ed fd d2 | Bd Ad Bb b2 | af de fd d2 :|


